images/client10.svg

<svg fill="none" height="200" viewBox="0 0 200 200" width="200" xmlns="http://www.w3.org/2000/svg"><path d="m85.7948 62.2243c15.7892-.5648 31.5952-.004 47.3572 1.0234 1.66.1462 3.341.1342 4.975.4887.884.2163 1.839.5587 2.356 1.3738.471.8873.481 1.9227.603 2.9.375 4.8006.486 9.6212.839 14.4218-.683.0841-1.365-.0221-2.048-.0441-12.157-.6389-24.324-1.1696-36.501-1.1856-6.3062.018-12.6205-.0441-18.921.2663-1.5273.2284-3.2558.7471-4.1379 2.129 4.7673.8591 9.5248 1.7864 14.2901 2.6616 15.7938 3.0001 31.5988 5.9341 47.3928 8.9302-.014 3.0402-.008 6.0806-.002 9.1206-8.881-1.492-17.747-3.102-26.623-4.6425-19.0945-3.3405-38.1835-6.7272-57.2842-10.0357.0375-3.3746.1795-6.7472.2486-10.1238.1204-2.6737.0454-5.3834.6413-8.009.4006-1.8525 1.1425-3.7151 2.5257-5.0389 2.3876-2.3993 5.8407-3.0742 9.0551-3.4127 5.0653-.4766 10.1522-.6328 15.2333-.8231zm-27.7948 31.8476c27.3567 5.123 54.704 10.3321 82.056 15.4851.598.148 1.238.16 1.812.383l.069.16c-.15 4.554-.237 9.112-.399 13.667-.104 2.809-.396 5.749-1.821 8.225-1.527 2.559-4.373 3.975-7.188 4.51-4.15.791-8.389.843-12.592 1.077-18.084.834-36.2062.373-54.2612-.889-1.4424-.102-2.9105-.128-4.3115-.535-.7261-.232-1.4759-.606-1.8864-1.287-.44-.893-.4676-1.913-.5761-2.886-.3868-5.313-.592-10.637-.8663-15.956 9.3136.601 18.643.937 27.9744 1.148 9.0097.148 18.0191.146 27.0291.236 1.944.082 4.045-.295 5.519-1.68.215-.251.564-.483.529-.858-4.061-.618-8.098-1.388-12.151-2.064-16.3068-2.83-32.6214-5.634-48.9261-8.48-.0198-3.419.0039-6.8374-.0099-10.2561z" fill="#fff"/></svg>

<svg width="200" height="200" viewBox="0 0 200 200" fill="none" xmlns="http://www.w3.org/2000/svg">
<path d="M85.7948 62.2243C101.584 61.6595 117.39 62.2203 133.152 63.2477C134.812 63.3939 136.493 63.3819 138.127 63.7364C139.011 63.9527 139.966 64.2951 140.483 65.1102C140.954 65.9975 140.964 67.0329 141.086 68.0102C141.461 72.8108 141.572 77.6314 141.925 82.432C141.242 82.5161 140.56 82.4099 139.877 82.3879C127.72 81.749 115.553 81.2183 103.376 81.2023C97.0698 81.2203 90.7555 81.1582 84.455 81.4686C82.9277 81.697 81.1992 82.2157 80.3171 83.5976C85.0844 84.4567 89.8419 85.384 94.6072 86.2592C110.401 89.2593 126.206 92.1933 142 95.1894C141.986 98.2296 141.992 101.27 141.998 104.31C133.117 102.818 124.251 101.208 115.375 99.6675C96.2805 96.327 77.1915 92.9403 58.0908 89.6318C58.1283 86.2572 58.2703 82.8846 58.3394 79.508C58.4598 76.8343 58.3848 74.1246 58.9807 71.499C59.3813 69.6465 60.1232 67.7839 61.5064 66.4601C63.894 64.0608 67.3471 63.3859 70.5615 63.0474C75.6268 62.5708 80.7137 62.4146 85.7948 62.2243V62.2243ZM58 94.0719C85.3567 99.1949 112.704 104.404 140.056 109.557C140.654 109.705 141.294 109.717 141.868 109.94L141.937 110.1C141.787 114.654 141.7 119.212 141.538 123.767C141.434 126.576 141.142 129.516 139.717 131.992C138.19 134.551 135.344 135.967 132.529 136.502C128.379 137.293 124.14 137.345 119.937 137.579C101.853 138.413 83.7308 137.952 65.6758 136.69C64.2334 136.588 62.7653 136.562 61.3643 136.155C60.6382 135.923 59.8884 135.549 59.4779 134.868C59.0379 133.975 59.0103 132.955 58.9018 131.982C58.515 126.669 58.3098 121.345 58.0355 116.026C67.3491 116.627 76.6785 116.963 86.0099 117.174C95.0196 117.322 104.029 117.32 113.039 117.41C114.983 117.492 117.084 117.115 118.558 115.73C118.773 115.479 119.122 115.247 119.087 114.872C115.026 114.254 110.989 113.484 106.936 112.808C90.6292 109.978 74.3146 107.174 58.0099 104.328C57.9901 100.909 58.0138 97.4906 58 94.0719V94.0719Z" fill="white"/>
</svg>
